X: 823
T: Willy Walsh's Jig
N:"Collected by O'Reilly"
B:O'Neill's 823
Z:Transcribed by Dan G. Petersen, dangp@post6.tele.dk
M:6/8
L:1/8
K:D
B|ADD BAF|ABd edB|ADD BAF|AFE E2F|
ADD BAF|ABd edB|AdB AFA|Bdd d2:|
B|AFA d2e|fdf ecA|BAB d2e|faf gfg|
AFA d2e|fdf ecA|AdB AFA|Bdd d2:|


